app/images/icons/text.svg

<svg xmlns="http://www.w3.org/2000/svg" width="18" height="15"><path fill-rule="evenodd" fill="#436372" d="M16.714 12.518H5.766L3.303 14.88a.441.441 0 01-.467.089.413.413 0 01-.265-.38v-2.071H1.286C.577 12.518 0 11.965 0 11.285V1.424C0 .744.577.191 1.286.191h15.428C17.423.191 18 .744 18 1.424v9.861c0 .68-.577 1.233-1.286 1.233zm.429-11.094a.42.42 0 00-.429-.411H1.286a.42.42 0 00-.429.411v9.861a.42.42 0 00.429.411H3a.42.42 0 01.428.411v1.49l1.857-1.78a.441.441 0 01.303-.121h11.126a.42.42 0 00.429-.411V1.424zm-4.8 5.547a.63.63 0 01-.643-.616.63.63 0 01.643-.617.63.63 0 01.643.617.63.63 0 01-.643.616zM9 6.971a.63.63 0 01-.643-.616A.63.63 0 019 5.738a.63.63 0 01.643.617.63.63 0 01-.643.616zm-3.586 0a.63.63 0 01-.642-.616.63.63 0 01.642-.617.63.63 0 01.643.617.63.63 0 01-.643.616z"/></svg>

<svg 
 xmlns="http://www.w3.org/2000/svg"
 xmlns:xlink="http://www.w3.org/1999/xlink"
 width="18px" height="15px">
<path fill-rule="evenodd"  fill="rgb(67, 99, 114)"
 d="M16.714,12.518 L5.766,12.518 L3.303,14.880 C3.221,14.958 3.111,15.000 3.000,15.000 C2.945,15.000 2.889,14.990 2.836,14.969 C2.676,14.905 2.571,14.755 2.571,14.589 L2.571,12.518 L1.286,12.518 C0.577,12.518 -0.000,11.965 -0.000,11.285 L-0.000,1.424 C-0.000,0.744 0.577,0.191 1.286,0.191 L16.714,0.191 C17.423,0.191 18.000,0.744 18.000,1.424 L18.000,11.285 C18.000,11.965 17.423,12.518 16.714,12.518 ZM17.143,1.424 C17.143,1.197 16.950,1.013 16.714,1.013 L1.286,1.013 C1.049,1.013 0.857,1.197 0.857,1.424 L0.857,11.285 C0.857,11.512 1.049,11.696 1.286,11.696 L3.000,11.696 C3.237,11.696 3.428,11.880 3.428,12.107 L3.428,13.597 L5.285,11.817 C5.366,11.740 5.475,11.696 5.588,11.696 L16.714,11.696 C16.950,11.696 17.143,11.512 17.143,11.285 L17.143,1.424 ZM12.343,6.971 C11.988,6.971 11.700,6.695 11.700,6.355 C11.700,6.014 11.988,5.738 12.343,5.738 C12.698,5.738 12.986,6.014 12.986,6.355 C12.986,6.695 12.698,6.971 12.343,6.971 ZM9.000,6.971 C8.645,6.971 8.357,6.695 8.357,6.355 C8.357,6.014 8.645,5.738 9.000,5.738 C9.355,5.738 9.643,6.014 9.643,6.355 C9.643,6.695 9.355,6.971 9.000,6.971 ZM5.414,6.971 C5.059,6.971 4.772,6.695 4.772,6.355 C4.772,6.014 5.059,5.738 5.414,5.738 C5.769,5.738 6.057,6.014 6.057,6.355 C6.057,6.695 5.769,6.971 5.414,6.971 Z"/>
</svg>
